svgs/easypaisa.svg

<svg width="192" height="192" viewBox="0 0 192 192" fill="none" xmlns="http://www.w3.org/2000/svg">
<path d="M123.739 108.952C155.116 98.3478 166.041 59.7239 139.238 35.4271C129.009 26.1546 114.754 22 100.035 22C65.9947 22 38.0573 48.7306 35.1824 82.7939C35.057 84.2798 35.5718 85.7487 36.582 86.8239C51.9052 103.133 73.4457 113.282 97.3032 113.282C106.538 113.282 115.425 111.762 123.739 108.952Z" stroke="black" stroke-width="12" stroke-linejoin="round"/>
<path d="M106.965 82.5269C119.622 78.4484 124.028 63.593 113.217 54.2481C109.091 50.6817 103.341 49.0838 97.4039 49.0838C83.6736 49.0838 72.4047 59.3648 71.245 72.4661C71.1944 73.0376 71.4021 73.6026 71.8096 74.0161C77.9904 80.2888 86.679 84.1925 96.3022 84.1925C100.027 84.1925 103.612 83.6077 106.965 82.5269Z" stroke="black" stroke-width="12" stroke-linejoin="round"/>
<path d="M90.5079 140.581C110.535 141.041 130.354 133.483 142.754 119.638L164.283 133.322C151.17 155.778 126.593 170.618 98.7763 169.98C61.1788 169.117 30.7876 140.278 27 103.79C44.8553 133.975 76.397 140.257 90.5079 140.581Z" stroke="black" stroke-width="12" stroke-linejoin="round"/>
</svg>

<svg width="192" height="192" viewBox="0 0 192 192" fill="none" xmlns="http://www.w3.org/2000/svg"><path d="M123.739 108.952c31.377-10.604 42.302-49.228 15.499-73.525C129.009 26.155 114.754 22 100.035 22c-34.04 0-61.978 26.73-64.853 60.794a5.25 5.25 0 0 0 1.4 4.03c15.323 16.309 36.864 26.458 60.721 26.458a82.4 82.4 0 0 0 26.436-4.33Z" stroke="#000" stroke-width="12" stroke-linejoin="round"/><path d="M106.965 82.527c12.657-4.079 17.063-18.934 6.252-28.279-4.126-3.566-9.876-5.164-15.813-5.164-13.73 0-25 10.28-26.159 23.382-.05.572.157 1.137.565 1.55 6.18 6.273 14.869 10.176 24.492 10.176 3.725 0 7.31-.584 10.663-1.665ZM90.508 140.581c20.027.46 39.846-7.098 52.246-20.943l21.529 13.684c-13.113 22.456-37.69 37.296-65.507 36.658-37.597-.863-67.988-29.702-71.776-66.19 17.855 30.185 49.397 36.467 63.508 36.791Z" stroke="#000" stroke-width="12" stroke-linejoin="round"/></svg>
